!!!!SEGMENT: pl-cz--d-ii-43--005_elsner-jozef--msza-pasterska-offertorium.krn
!!!cenid: 18xx:201
!!!COM: Elsner, Józef
!!!COM-rismid: pe30000957
!!!CDT: 1769/06/01-1854/04/18
!!!CNT: Polish
!!!OPR: Msza pasterska
!!!OTL: Offertorium
!!!OMV: 005
!!!OMD: OFFERTORIUM.
!!!PDT: 1843
!!!AGN: Sacred; Mass
!!!SMS-siglum: PL-CZ
!!!SMS-shelfmark: D II-43
!!!SMS-shelfwork: 001-005 M
!!!NIFC-rismid:
!!!URL-scan: http://repozytorium.nifc.pl/skany/pl-cz-nut--dii-43
!!!ONB-nifc: UWAGA: części Mszy: Kyrie, Gloria, Graduale, Credo, Offertorium, Sanctus, Benedictus, Agnus
!!!key:
**kern	**kern	**dynam	**kern	**dynam	**kern	**text	**kern	**text	**dynam
*part4	*part4	*	*part3	*part3	*part2	*part2	*part1	*part1	*part1
*staff5	*staff4	*	*staff3	*	*staff2	*staff2	*staff1	*staff1	*
*Iorgan	*Iempty	*	*Icello	*	*Itenor	*	*Isoprn	*	*
*I"Organo.	*	*	*I"Violoncello	*	*I"Tenore	*	*I"Soprano 2o	*	*
*I'Org.	*	*	*I'V-c.	*	*I'T.	*	*I'S.	*	*
*clefF4	*clefG2	*	*clefF4	*	*clefC4	*	*clefG2	*	*
*k[f#c#]	*k[f#c#]	*	*k[f#c#]	*	*k[f#c#]	*	*k[f#c#]	*	*
*D:	*D:	*	*D:	*	*D:	*	*D:	*	*
*M3/4	*M3/4	*	*M3/4	*	*M3/4	*	*M3/4	*	*
=1	=1	=1	=1	=1	=1	=1	=1	=1	=1
!	!LO:TX:a:Bi:t=Andantino	!	!	!	!	!	!LO:TX:a:Bi:t=Andantino.	!	!
2.r	(8d/L 8f#	.	2.r	.	2.r	.	2.r	.	.
.	8c#/J) 8e	.	.	.	.	.	.	.	.
.	4d/ 4f#	.	.	.	.	.	.	.	.
.	4e/ 4g	.	.	.	.	.	.	.	.
=2	=2	=2	=2	=2	=2	=2	=2	=2	=2
4r	4f#/ 4a	.	4r	.	2.r	.	2.r	.	.
2D\	2f#\ 2a [2dd	.	2D^\	.	.	.	.	.	.
=3	=3	=3	=3	=3	=3	=3	=3	=3	=3
*	*^	*	*	*	*	*	*	*	*
!	!	!	!	!LO:TX:a:t=P:problem=diminuendolike accent	!	!	!	!	!	!
4E\	8dd/L]	4g\	.	4E^\	.	2.r	.	2.r	.	.
.	8cc#/J	.	.	.	.	.	.	.	.	.
2AA\ 2E 2G	8ee/L	2ryy	.	2AA/	.	.	.	.	.	.
.	8cc#/	.	.	.	.	.	.	.	.	.
.	8a/	.	.	.	.	.	.	.	.	.
.	8cc#/J	.	.	.	.	.	.	.	.	.
*	*v	*v	*	*	*	*	*	*	*	*
=4	=4	=4	=4	=4	=4	=4	=4	=4	=4
4D\ 4F#	4dd\	.	4D/	.	2.r	.	2.r	.	.
4DD/ 4D	4f#\ 4a 4dd	.	4DD/	.	.	.	.	.	.
4r	4r	.	4r	.	.	.	.	.	.
=5	=5	=5	=5	=5	=5	=5	=5	=5	=5
2.r	2.r	.	2.r	.	(8d\L	Przyi-	(8f#/L	Przyi-	.
.	.	.	.	.	8c#\J	.	8e/J	.	.
.	.	.	.	.	4d\)	.	4f#/)	.	.
.	.	.	.	.	4e\	-mij	4g/	-mij	.
=6	=6	=6	=6	=6	=6	=6	=6	=6	=6
4r	4r	.	4r	.	2f#\	Bo-	8a\L	Bo-	.
.	.	.	.	.	.	.	8dd\J	.	.
2D\	2f#\ 2a 2dd	p	2D\	.	.	.	2dd\	-że	.
.	.	.	.	.	4f#\	-że	.	.	.
=7	=7	=7	=7	=7	=7	=7	=7	=7	=7
4r	4r	.	4r	.	2e\	tę	(8dd\L	tę	.
.	.	.	.	.	.	.	8cc#\	.	.
2AA/	2e\ 2g 2a 2cc#	.	2AA/	.	.	.	8ee\	.	.
.	.	.	.	.	.	.	8cc#\J)	.	.
.	.	.	.	.	4G/	o	(8a\L	o-	.
.	.	.	.	.	.	.	8cc#\J	.	.
=8	=8	=8	=8	=8	=8	=8	=8	=8	=8
4r	4r	.	4r	.	8F#/L	fia-	8dd\L	-fia-	.
.	.	.	.	.	8A/J	.	8a\J)	.	.
2DD/ 2D	2f#\ 2a 2dd	.	2DD/ 2D	.	4d\	-rę	4f#/	-rę	.
.	.	.	.	.	4r	.	4r	.	.
=9	=9	=9	=9	=9	=9	=9	=9	=9	=9
!!LO:LB:g=original
2.GG/	8r	.	[>2.GG/	.	(4.BS\	Któ-	(4.gS/	Któ-	.
.	(8g\L 8b	.	.	.	.	.	.	.	.
.	8b\ 8dd	.	.	.	.	.	.	.	.
.	8a\ 8cc#	.	.	.	8c#\)	.	8a/)	.	.
.	8g\ 8b	.	.	.	8d\L	-rę	8b\L	-rą	.
.	8b\J) 8dd	.	.	.	8B\J	.	8dd\J	.	.
=10	=10	=10	=10	=10	=10	=10	=10	=10	=10
2.GG/	8cc#\L 8ee	.	2.GG/]	.	8e\L	za	8cc#\L	za-	.
.	(8b\ 8dd	.	.	.	(8d\J	___	(8b\	.	.
.	8a\ 8cc#	.	.	.	8c#\L	.	8a\	.	.
.	8g\J 8b	.	.	.	8B\J	.	8g\J	.	.
.	8b\L 8dd	.	.	.	8d\L)	nas	8b/L)	.	.
.	8g\J) 8ee	.	.	.	8e\J	.	8g/J	-nas	.
=11	=11	=11	=11	=11	=11	=11	=11	=11	=11
2.AA/	(2f#\ 2dd	.	[2.AA/	.	2d\	Ka-	2f#/	Ka-	.
.	8e\L) 8g 8cc#	.	.	.	8e\L	-płan	8g/L	-płan	.
.	8d\J 8f# 8dd	.	.	.	8d\J	.	8f#/J	.	.
=12	=12	=12	=12	=12	=12	=12	=12	=12	=12
4.AA/	(8e\L 8cc#	.	4.AA/]	.	8c#\L	swięci	8e/L	swięci	.
.	8f#\J) 8dd	.	.	.	8d\J	.	8f#/J	.	.
.	4e\ 4ee'	.	.	.	4c#\	.	4e/	.	.
8G\L	.	.	8G\L	.	.	.	.	.	.
8E\	4r	.	8E\	.	4r	.	4r	.	.
8D\J	.	.	8D\J	.	.	.	.	.	.
=13	=13	=13	=13	=13	=13	=13	=13	=13	=13
*	*tremolo	*	*	*	*	*	*	*	*
2.C#\	8e/L 8g	.	4C#/	.	2.r	.	(4.a/	w zma-	.
.	8c#/	.	.	.	.	.	.	.	.
.	8e/ 8g	.	4AA/	.	.	.	.	.	.
.	8c#/	.	.	.	.	.	8g/)	.	.
.	8e/ 8g	.	4r	.	.	.	8e/L	-cniay	.
.	8c#/J	.	.	.	.	.	16a/L	.	.
.	.	.	.	.	.	.	16g/JJ	.	.
=14	=14	=14	=14	=14	=14	=14	=14	=14	=14
.	.	.	.	.	.	.	8qg/	.	.
2.D\	8d/L 8f#	.	4D\	.	4.B\	wzmacniay	4f#/	wiecznie	.
.	8A/	.	.	.	.	.	.	.	.
.	8d/ 8f#	.	4AA/	.	.	.	4f#/	.	.
.	8A/	.	.	.	8A\	.	.	.	.
.	8d/ 8f#	.	4r	.	8F#\L	.	4r	.	.
.	8A/J	.	.	.	16B\L	.	.	.	.
.	.	.	.	.	16A\JJ	.	.	.	.
=15	=15	=15	=15	=15	=15	=15	=15	=15	=15
.	.	.	.	.	8qd/	.	.	.	.
2.E\	8c#/L 8g	.	4E\	.	4c#\	wiecznie	(4.a/	na-	.
.	8A/	.	.	.	.	.	.	.	.
.	8c#/ 8g	.	4AA/	.	4c#\	.	.	.	.
.	8A/	.	.	.	.	.	8g/)	.	.
.	8c#/ 8g	.	4r	.	4r	.	8e/L	-szą	.
.	8A/J	.	.	.	.	.	16a/L	.	.
.	.	.	.	.	.	.	16g/JJ	.	.
=16	=16	=16	=16	=16	=16	=16	=16	=16	=16
!!LO:LB:g=original
4D\	8d/L 8f#	.	2.D\	.	4.B\	na-	4f#/	wia-	.
.	8A/	.	.	.	.	.	.	.	.
2DD/ 2D	8d/ 8f#	.	.	.	.	.	8f#/	-rę	.
.	8A/J	.	.	.	8A\	.	8r	.	.
*	*Xtremolo	*	*	*	*	*	*	*	*
.	(8d/L 8f#	.	.	.	8F#/	-szą	8r	.	.
.	8f#/J) 8a	.	.	.	16B\LL	.	(8f#/	wspie-	.
.	.	.	.	.	16A\JJ	.	.	.	.
=17	=17	=17	=17	=17	=17	=17	=17	=17	=17
2.DD/ 2.D	8e/L 8g	.	2.D\	.	8G\	wiarę	8e/)	.	.
.	8f#/ 8a	.	.	.	8A\	.	8f#/	-raj	.
.	8g/ 8b	.	.	.	8c#\	wspieraj	8g/	wszystkie	.
.	8f#/ 8a	.	.	.	8F#/	.	8a/	.	.
.	8g/ 8b	.	.	.	8G/	dobre	8b/	dobre	.
.	8e/J 8cc#	.	.	.	8E/	.	8cc#/	.	.
=18	=18	=18	=18	=18	=18	=18	=18	=18	=18
4DD/ 4D	4f#\ 4dd	.	4D\	.	4F#/	chę-	4dd\	chęci	.
4EE/ 4E	4g\ 4cc#	.	4E\	.	4G/	-ci	4cc#\	.	.
8FF#/L 8F#	8d\L 8dd	.	8F#\L	.	8A\	wszystkie	8dd\	wszystkie	.
8GG/J 8G	8g\J 8b	.	8G\J	.	8B\	.	8g/	.	.
=19	=19	=19	=19	=19	=19	=19	=19	=19	=19
4AA\ 4A	8r	.	4A\	.	2d\	do-	2f#/	do-	.
.	8d/L 8f#	.	.	.	.	.	.	.	.
4r	8f#/ 8a	.	4r	.	.	.	.	.	.
.	8d/J 8f#	.	.	.	.	.	.	.	.
*	*^	*	*	*	*	*	*	*	*
4AA\ 4A	8c#/L 8g	4e\	.	4AA/	.	4c#\	-bre	4e/	-bre	.
.	8a/J	.	.	.	.	.	.	.	.	.
*	*v	*v	*	*	*	*	*	*	*	*
=20	=20	=20	=20	=20	=20	=20	=20	=20	=20
!	!	!	!	!	!LO:N:vis=2	!	!LO:N:vis=2	!	!
*	*tremolo	*	*	*	*	*	*	*	*
4DD/ 4D	8d/L 8f#	.	4DD/	.	2d\	chę-	2d/	chę-	.
.	8a/	.	.	.	.	.	.	.	.
4FF#/ 4F#	8d/ 8f#	.	4FF#/	.	.	.	.	.	.
.	8a/	.	.	.	.	.	.	.	.
4AA/ 4A	8d/ 8f#	.	4AA/	.	4ryy	.	4ryy	.	.
.	8a/J	.	.	.	.	.	.	.	.
=21	=21	=21	=21	=21	=21	=21	=21	=21	=21
2DD/ 2D	8d/L 8f#	.	2D/	.	2d\	-ci	2d/	-ci	.
.	8a/	.	.	.	.	.	.	.	.
.	8d/ 8f#	.	.	.	.	.	.	.	.
.	8a/J	.	.	.	.	.	.	.	.
*	*Xtremolo	*	*	*	*	*	*	*	*
4BBB/ 4BB	8d/L 8f#	.	4BB/	.	4r	.	4r	.	.
.	8g#X/J	.	.	.	.	.	.	.	.
=22	=22	=22	=22	=22	=22	=22	=22	=22	=22
2.AAA/ 2.AA	8c#/L 8a	.	[2.AA/	.	2.r	.	2.r	.	.
.	8B/J 8g#X	.	.	.	.	.	.	.	.
.	4c#/ 4a	.	.	.	.	.	.	.	.
.	4d/ 4b	.	.	.	.	.	.	.	.
=23	=23	=23	=23	=23	=23	=23	=23	=23	=23
!!LO:PB:g=original
[2.AAA/ [2.AA	8e\L 8cc#	.	2.AA/_	.	(8e\L	Kę-	(8cc#\L	Kę	.
.	8f#\J 8dd	.	.	.	8f#\J	.	8dd\J)	.	.
.	4e\ 4cc#	.	.	.	4e\)	.	4cc#\	.	.
.	4d#X\ 4b#X	.	.	.	4d#X\	-dy	4b#X\	dy	.
=24	=24	=24	=24	=24	=24	=24	=24	=24	=24
2.AAA/_ 2.AA_	4.e\ 4.cc#	.	2.AA/]	.	(4.e\	two-	(4.cc#\	two-	.
.	8dn\ 8bn	.	.	.	8dn\)	.	8bn\)	.	.
.	4c#\ 4a	.	.	.	4c#\	-ie	4a\	-ie	.
=25	=25	=25	=25	=25	=25	=25	=25	=25	=25
2.AAA/_ 2.AA_	4.cc#\ 4.ee	.	2.AA/	.	(4.c#\	słoń-	(4.ee\	słoń-	.
.	8b\ 8dd	.	.	.	8B\)	.	8dd\)	.	.
.	4a\ 4cc#	.	.	.	4A\	-ce	4cc#\	-ce	.
=26	=26	=26	=26	=26	=26	=26	=26	=26	=26
2.AAA/_ 2.AA_	(2.g#X\ 2.b 2.dd	.	[2.AA/	.	4r	.	16ee\LL	swie-	.
.	.	.	.	.	.	.	16dd\	.	.
.	.	.	.	.	.	.	16b\	.	.
.	.	.	.	.	.	.	16g#X\JJ	.	.
.	.	.	.	.	16e\LL	swie-	4e/	-ci	.
.	.	.	.	.	16d\	.	.	.	.
.	.	.	.	.	16B\	.	.	.	.
.	.	.	.	.	16G#X\JJ	.	.	.	.
.	.	.	.	.	4E/	-ci	4r	.	.
=27	=27	=27	=27	=27	=27	=27	=27	=27	=27
2.AAA/_ 2.AA_	8e\L) 8cc#	.	2.AA/]	.	(8e\L	Tam	(8cc#\L	Tam	.
.	8f#\J 8dd	.	.	.	8f#\J	.	8dd\J	.	.
.	4e\ 4cc#	.	.	.	4e\)	.	4cc#\)	.	.
.	4d#X\ 4b#X	.	.	.	4d#X\	gdzie	4b#X\	gdzie	.
=28	=28	=28	=28	=28	=28	=28	=28	=28	=28
2.AAA/_ 2.AA_	4.e\ 4.cc#	.	2.AA/	.	(4.e\	ludzkie	(4.cc#\	ludzkie	.
.	8dn\ 8bn	.	.	.	8dn\)	.	8bn\)	.	.
.	4c#\ 4a	.	.	.	4c#\	.	4a\	.	.
=29	=29	=29	=29	=29	=29	=29	=29	=29	=29
2.AAA/_ 2.AA_	4.cc#\ 4.ee	.	2.AA/	.	(4.c#\	ser-	(4.ee\	Ser-	.
.	8b\ 8dd	.	.	.	8B\)	.	8dd\)	.	.
.	4a\ 4cc#	.	.	.	4A\	-ca	4cc#\	-ca	.
=30	=30	=30	=30	=30	=30	=30	=30	=30	=30
2.AAA/] 2.AA]	2.g#X\ 2.b 2.dd	.	2.AA/	.	4r	.	16ee\LL	bi-	.
.	.	.	.	.	.	.	16dd\	.	.
.	.	.	.	.	.	.	16b\	.	.
.	.	.	.	.	.	.	16g#X\JJ	.	.
.	.	.	.	.	16e\LL	bi-	4e/	-ią	.
.	.	.	.	.	16d\	.	.	.	.
.	.	.	.	.	16B\	.	.	.	.
.	.	.	.	.	16G#X\JJ	.	.	.	.
.	.	.	.	.	4E/	-ią	4r	.	.
=31	=31	=31	=31	=31	=31	=31	=31	=31	=31
!!LO:LB:g=original
[2.AA/	2.g#X\ 2.b 2.dd	.	[2.AA/	.	8d\	niech	8dd\	niech	.
.	.	.	.	.	8B\	cię	8b\	cię	.
.	.	.	.	.	4G#X/	znaią	4g#X/	znaią	.
.	.	.	.	.	8f#\L	.	8ff#\L	.	.
.	.	.	.	.	8e\J	.	8ee\J	.	.
=32	=32	=32	=32	=32	=32	=32	=32	=32	=32
2.AA/_	2.g#X\ 2.b 2.dd	.	2.AA/_	.	4.d\	two-	4.dd\	two-	.
.	.	.	.	.	8B\	-ie	8b\	-ie	.
.	.	.	.	.	8e\	dzieci	8g#X/	dzieci	.
.	.	.	.	.	8d\	.	8b/	.	.
=33	=33	=33	=33	=33	=33	=33	=33	=33	=33
2.AA/_	8a\L 8cc#	.	2.AA/_	.	8c#\	niech	8a\	niech	.
.	8b\J 8dd	.	.	.	8d\	iak	8b\	iak	.
.	4a\ 4cc#	.	.	.	4c#\	Bracia	4a/	Bracia	.
.	4b\ 4dd	.	.	.	4d\	.	4b/	.	.
=34	=34	=34	=34	=34	=34	=34	=34	=34	=34
2.AA/_	8cc#\L 8ee	.	2.AA/_	.	8e\	wzgodzie	8cc#\	wzgodzie	.
.	8dd\J 8ff#	.	.	.	8f#\	.	8dd\	.	.
.	4cc#\ 4ee	.	.	.	4e\	ży	4cc#\	.	.
.	4dd#X\ 4ff#	.	.	.	4f#\	ia	4dd#X\	żyią	.
=35	=35	=35	=35	=35	=35	=35	=35	=35	=35
2.AA/_	2ee\ 2gg	.	2.AA/_	.	2g\	w zgo-	2ee\	w-zgo	.
.	4dd#X\ 4ff#	.	.	.	4f#\	-dzie	4dd#X\	-dzie	.
=36	=36	=36	=36	=36	=36	=36	=36	=36	=36
*	*^	*	*	*	*	*	*	*	*
!	!	!	!	!	!	!	!	!	!	!LO:HP:b
4.AA/]	(2ee/ 2gg	4.cc#\	.	4.AA/]	.	(2.g\	ży-	[2.ee\	ży-	>
(>8BB-X/L	.	8ddn\L	.	8BB-X/L	.	.	.	.	.	.
8AA/	4ryy	8cc#\	.	8AA/	.	.	.	.	.	.
8BB-/J	.	8dd\J)	.	8BB-/J	.	.	.	.	.	.
*	*v	*v	*	*	*	*	*	*	*	*
=37	=37	=37	=37	=37	=37	=37	=37	=37	=37
!LO:TX:a:t=P:problem=niejednoznaczne zakończenie łuku	!	!	!	!	!	!	!	!	!
2.AA/)	(2cc#\ 2ee 2gg	.	2.AA/	.	2g\)	.	2ee\]	.	.
.	.	.	.	.	.	.	.	.	]
.	4cc#\) [4ee	.	.	.	4e\	.	4cc#\	.	.
=38	=38	=38	=38	=38	=38	=38	=38	=38	=38
!!LO:LB:g=original
!	!	!	!	!	!	!	!	!	!LO:DY:a
!	!LO:TX:a:t=P:problem=brak zakończenia ligatury	!	!	!	!	!	!	!	!
2AA/	2cc#\ 2ee]	.	2AA/	.	2.c#\	-ią	(>2a/	-ią	<
4r	4r	.	4r	.	.	.	4gn/)	.	[
=39	=39	=39	=39	=39	=39	=39	=39	=39	=39
2.r	2.r	.	2.r	.	(8d\L	Któ-	(>8f#/L	Któ-	.
.	.	.	.	.	8c#\J	.	8e/J	.	.
.	.	.	.	.	4d\)	.	4f#/)	.	.
.	.	.	.	.	4e\	-rzy	4g/	-rży	.
=40	=40	=40	=40	=40	=40	=40	=40	=40	=40
4r	4r	.	4r	.	2f#\	iuż	4a/	iuż	.
2D\	2f#\ 2a 2dd	.	2D\	.	.	.	2dd\	są	.
.	.	.	.	.	4f#\	są	.	.	.
=41	=41	=41	=41	=41	=41	=41	=41	=41	=41
4r	4r	.	4r	.	2e\	przy	(8dd\L	przy	.
.	.	.	.	.	.	.	8cc#\	.	.
2AA/	2e/ 2g 2a 2cc#	.	2AA/	.	.	.	8ee\	.	.
.	.	.	.	.	.	.	8cc#\J	.	.
.	.	.	.	.	4G/	twym	8a\L)	twym	.
.	.	.	.	.	.	.	8cc#\J	.	.
=42	=42	=42	=42	=42	=42	=42	=42	=42	=42
4r	4r	.	4r	.	8F#\L	Tro-	8dd\L	Tro-	.
.	.	.	.	.	8A\J	.	8a\J	.	.
2DD/ 2D	2f#\ 2a 2dd	.	2DD/ 2D	.	4d\	-nie	4f#/	-nie	.
.	.	.	.	.	4r	.	4r	.	.
=43	=43	=43	=43	=43	=43	=43	=43	=43	=43
[2.GG/	8r	.	2.GG/	.	(4.BS\	Ci	(4.gS/	Ci	.
.	8g\L 8b	.	.	.	.	.	.	.	.
.	8b\ 8dd	.	.	.	.	.	.	.	.
.	8a\ 8cc#	.	.	.	8c#\)	__	8a/)	.	.
.	8g\ 8b	.	.	.	8d\L	co	8b\L	co	.
.	8b\J 8dd	.	.	.	8B\J	.	8dd\J	.	.
=44	=44	=44	=44	=44	=44	=44	=44	=44	=44
2.GG/]	8cc#\L 8ee	.	2.GG/	.	8e\L	ży-	8cc#\L	ży-	.
.	8b\ 8dd	.	.	.	8d\	.	8b\	.	.
.	8a\ 8cc#	.	.	.	8c#\	.	8a\	.	.
.	8g\ 8b	.	.	.	8B\J	.	8g\J	.	.
.	8b\ 8dd	.	.	.	8d\L	-ią	8b\L	-ią	.
.	8g\J 8ee	.	.	.	8e\J	.	8g\J	.	.
=45	=45	=45	=45	=45	=45	=45	=45	=45	=45
!!LO:PB:g=original
2.AA/	2f#\ 2dd	.	2.AA/	.	2d\	do	2f#/	do	.
.	8e\L 8g 8cc#	.	.	.	8e\L	téy	8g/L	téy	.
.	8d\J 8f# 8dd	.	.	.	8d\J	.	8f#/J	.	.
=46	=46	=46	=46	=46	=46	=46	=46	=46	=46
4.AA/	8e\L 8cc#	.	4.AA/	.	8c#\L	chwili	8e/L	chwili	.
.	8f#\J 8dd	.	.	.	8d\J	.	8f#/J	.	.
.	4e\ 4cc#	.	.	.	4c#\	.	4e/	.	.
8G\L	.	.	8G\L	.	.	.	.	.	.
8E\	4r	.	8E\	.	4r	.	4r	.	.
8D\J	.	.	8D\J	.	.	.	.	.	.
=47	=47	=47	=47	=47	=47	=47	=47	=47	=47
*	*tremolo	*	*	*	*	*	*	*	*
2.C#/	8e/L 8g	.	4C#/	.	2.r	.	(4.a/	co	.
.	8A/	.	.	.	.	.	.	.	.
.	8e/ 8g	.	4AA/	.	.	.	.	.	.
.	8A/	.	.	.	.	.	8g/)	.	.
.	8e/ 8g	.	4r	.	.	.	8e/L	po	.
.	8A/J	.	.	.	.	.	16a/L	.	.
.	.	.	.	.	.	.	16g/JJ	.	.
=48	=48	=48	=48	=48	=48	=48	=48	=48	=48
.	.	.	.	.	.	.	8qg/	.	.
2.D/	8d/L 8f#	.	4D\	.	(4.B\	Co	4f#/	naszym	.
.	8A/	.	.	.	.	.	.	.	.
.	8d/ 8f#	.	4AA/	.	.	.	8f#/	.	.
.	8A/	.	.	.	8A\)	.	8r	.	.
.	8d/ 8f#	.	4r	.	8F#\L	po	4r	.	.
.	8A/J	.	.	.	16B\L	.	.	.	.
.	.	.	.	.	16A\JJ	.	.	.	.
=49	=49	=49	=49	=49	=49	=49	=49	=49	=49
.	.	.	.	.	8qd/	.	.	.	.
2.E\	8c#/L 8g	.	4E\	.	4c#\	naszym	4.a/	przyidą	.
.	8A/	.	.	.	.	.	.	.	.
.	8c#/ 8g	.	4AA/	.	8c#\	.	.	.	.
.	8A/	.	.	.	8r	.	8g/	.	.
.	8c#/ 8g	.	4r	.	4r	.	8e/L	.	.
.	8A/J	.	.	.	.	.	16a/L	.	.
.	.	.	.	.	.	.	16g/JJ	.	.
=50	=50	=50	=50	=50	=50	=50	=50	=50	=50
.	.	.	.	.	.	.	8qg/	.	.
4D/	8d/L 8f#	.	[2.D\	.	4.B\	przyidą	4f#/	zgonie	.
.	8A/	.	.	.	.	.	.	.	.
[2DD/ [2D	8d/ 8f#	.	.	.	.	.	8f#/	.	.
.	8A/J	.	.	.	8A\	.	8r	.	.
*	*Xtremolo	*	*	*	*	*	*	*	*
.	(8d/L 8f#	.	.	.	8F#\L	.	8r	.	.
.	8f#/J 8a	.	.	.	16B\L	.	(8f#/	Spraw	.
.	.	.	.	.	16A\JJ	.	.	.	.
=51	=51	=51	=51	=51	=51	=51	=51	=51	=51
2.DD/_ 2.D_	8e/L) 8g	.	2.D\]	.	8G\	zgo	8e/)	.	.
.	8f#/ 8a	.	.	.	8A\	nie	8f#/	by	.
.	8g/ 8b	.	.	.	8B\	Spraw	8g/	Bo-	.
.	8f#/ 8a	.	.	.	8F#/	by	8a/	-że	.
.	8g/ 8b	.	.	.	8G/	wtobie	8b\	wtobie	.
.	8e/J 8cc#	.	.	.	8E/	.	8cc#\	.	.
=52	=52	=52	=52	=52	=52	=52	=52	=52	=52
!!LO:LB:g=original
!LO:TX:b:t=P:problem=brak zakończenia ligatury	!	!	!	!	!	!	!	!	!
4DD/] 4D]	4f#\ 4dd	.	4D\	.	4F#/	ży-	4dd\	ży-	.
4EE/ 4E	4g\ 4cc#	.	4E\	.	4G/	-li	4cc#\	-li	.
8FF#/L 8F#	8d\L 8a 8dd	.	8F#\L	.	8A/	Spraw	8dd\	Spraw	.
8GG/J 8G	8g\J 8b	.	8G\J	.	8B/	by	8g/	by	.
=53	=53	=53	=53	=53	=53	=53	=53	=53	=53
4AA\ 4A	8r	.	4A\	.	2d\	w to	2f#/	w to	.
.	8d/L 8f#	.	.	.	.	.	.	.	.
4r	8f#/ 8a	.	4r	.	.	.	.	.	.
.	8d/J 8f#	.	.	.	.	.	.	.	.
4AA\ 4A	8c#/L 8e 8g	.	4AA/	.	4c#\	-bie	4e/	-bie	.
.	8a/J	.	.	.	.	.	.	.	.
=54	=54	=54	=54	=54	=54	=54	=54	=54	=54
!	!LON:vis=2	!	!LO:N:vis=2	!	!	!	!	!	!
[2.D\	8d/L 8f#	.	[2.D\	.	8d\L	ży-	8f#/L	ży-	.
.	8e/ 8g	.	.	.	8e\J	.	8g/J	.	.
.	8f#/ 8a	.	.	.	8f#\L	-li	8a/L	-li	.
.	8g/ 8b	.	.	.	8g\J	spraw	8b/J	spraw	.
.	8e/ 8g	.	.	.	8e\	.	8g/	.	.
.	8f#/J 8a	.	.	.	8f#\	by	8a/	by	.
=55	=55	=55	=55	=55	=55	=55	=55	=55	=55
*	*^	*	*	*	*	*	*	*	*
4D\]	8dd/L	4f#\ 4a	.	4D\]	.	8d\L	Bo-	4f#/	Bo-	.
.	8cc#/	.	.	.	.	8c#\J	.	.	.	.
4.G\	8b/	8g\L	.	4.G\	.	8B\L	-że	8g/L	-że	.
.	8cc#/	8a\	.	.	.	8c#\J	.	8a/J	.	.
.	8dd/	8b\	.	.	.	8d\	wto	8b/	w-to	.
8E\	8ee/J	(>8g\J	.	8E\	.	8e\	bie	8g/	-bie	.
*	*v	*v	*	*	*	*	*	*	*	*
=56	=56	=56	=56	=56	=56	=56	=56	=56	=56
2.A\	2f#/) 2a	.	4A\	.	2A\	wto	2f#/	w to	.
.	.	.	4r	.	.	.	.	.	.
.	8e#X/L 8g#X 8b	.	4AA/	.	8B\L	-bie	8e#X/L	-bie	.
.	8en/J 8gn 8cc#	.	.	.	8c#\J	.	8en/J	.	.
=57	=57	=57	=57	=57	=57	=57	=57	=57	=57
2.D\	8d/L 8f#	.	2.D\	.	8d\L	ży	8f#/L	ży	.
.	8e/J 8g	.	.	.	8e\J	.	8g/J	.	.
.	8f#/L 8a	.	.	.	8f#\L	li	8a/L	li	.
.	16g/L 16b	.	.	.	16g\L	.	16b/L	spraw	.
.	16f#/JJ 16a	.	.	.	16f#\JJ	.	16a/JJ	.	.
.	8e/L 8g	.	.	.	8e\	spraw	8g/	.	.
.	16f#/L 16a	.	.	.	16f#\LL	by	16a/LL	by	.
.	16e/JJ 16g	.	.	.	16e\JJ	.	16g/JJ	.	.
=58	=58	=58	=58	=58	=58	=58	=58	=58	=58
*	*^	*	*	*	*	*	*	*	*
4D\	8dd/L	4f#\ 4a	.	4D\	.	8d\L	Bo-	4f#/	Bo-	.
.	8cc#/	.	.	.	.	8c#\J	.	.	.	.
4.G\	8b/	8g\L	.	4.G\	.	8B\L	-że	8g/L	-że	.
.	8cc#/	8a\	.	.	.	8c#\J	.	8a/J	.	.
.	8dd/	8b\	.	.	.	8d\	wto-	8b/	wto	.
8E\	8ee/J	(>8g\J	.	8E\	.	8e\	-bie	8g/	-bie	.
*	*v	*v	*	*	*	*	*	*	*	*
=59	=59	=59	=59	=59	=59	=59	=59	=59	=59
!!LO:LB:g=original
!	!LO:TX:a:t=P:problem=brak zakończenia łuku	!	!	!	!	!	!	!	!
2.A\	2f#/) 2a	.	4A\	.	2A\	wto	2f#/	wto	.
.	.	.	4r	.	.	.	.	.	.
.	8e#X/L 8g#X 8b	.	4AA/	.	8B\L	-bie	8e#X/L	-bie	.
.	8en/J 8gn 8cc#	.	.	.	8c#\J	.	8en/J	.	.
=60	=60	=60	=60	=60	=60	=60	=60	=60	=60
*	*^	*	*	*	*	*	*	*	*
*	*	*^	*	*	*	*	*	*	*	*
4D\ 4d	2dd/	4a\	2f#\	.	4D\	.	(4d\	Bo-	(4d/	Bo-	.
4BB\ 4B	.	2b\	.	.	4BB/	.	4F#/)	.	4f#/)	.	.
4GG\ 4G	4g/	.	4ryy	.	4GG/	.	4B'\	-że	4b'/	-że	.
*	*	*v	*v	*	*	*	*	*	*	*	*
*	*v	*v	*	*	*	*	*	*	*	*
=61	=61	=61	=61	=61	=61	=61	=61	=61	=61
2.AA\ 2.A	8f#\L 8dd	.	4AA/	.	[>2.A/	ży-	[>2.a/	ży	.
.	8a\	.	.	.	.	.	.	.	.
.	8a\ 8ff#	.	4r	.	.	.	.	.	.
.	8f#\ 8dd	.	.	.	.	.	.	.	.
.	8g\ 8ee	.	4AA/	.	.	.	.	.	.
.	8a\J 8ff#	.	.	.	.	.	.	.	.
=62	=62	=62	=62	=62	=62	=62	=62	=62	=62
2.AA\ 2.A	8f#\L 8dd	.	4AA/	.	2.A/]	.	2.a/]	.	.
.	8a\	.	.	.	.	.	.	.	.
.	8a\ 8ff#	.	4r	.	.	.	.	.	.
.	8f#\ 8dd	.	.	.	.	.	.	.	.
.	8g\ 8ee	.	4AA/	.	.	.	.	.	.
.	8a\J 8ff#	.	.	.	.	.	.	.	.
=63	=63	=63	=63	=63	=63	=63	=63	=63	=63
4.DD/ 4.D	8f#\L 8dd	.	4.D\	.	2C#/	-li.	2d/	li.	.
.	8a\	.	.	.	.	.	.	.	.
.	8f#\ 8dd	.	.	.	.	.	.	.	.
8F#\L	(8f#\	.	8F#\L	.	.	.	.	.	.
8A\	8a\	.	8A\	.	4r	.	4r	.	.
8F#\J	8f#\J	.	8F#\J	.	.	.	.	.	.
=64	=64	=64	=64	=64	=64	=64	=64	=64	=64
8D\L	8d/L	.	(8D/L	.	2.r	.	2.r	.	.
8AA\	8A/	.	8AA/	.	.	.	.	.	.
8FF#\	8F#</	.	8FF#/	.	.	.	.	.	.
8AA\	8A</	.	8AA/	.	.	.	.	.	.
8D\	8d</	.	8D/	.	.	.	.	.	.
8F#\J	8f#</J)	.	8F#/J)	.	.	.	.	.	.
=65	=65	=65	=65	=65	=65	=65	=65	=65	=65
2.DD/ 2.D	2.d/	.	2.D\	.	2.r	.	2.r	.	.
=66	=66	=66	=66	=66	=66	=66	=66	=66	=66
2DD/ 2D	2d/	.	2D\	.	2.r	.	2.r	.	.
4r	4r	.	4r	.	.	.	.	.	.
==	==	==	==	==	==	==	==	==	==
*-	*-	*-	*-	*-	*-	*-	*-	*-	*-
!!!system-decoration: [s1,s2,s3{(s4,s5)}]
!!!RDF**kern: > = above
!!!RDF**kern: < = below
!!!AIN: 1 cello 1 organ 1 soprn 1 tenor
!!!ENC: Berenika Jozajtis
!!!END: 2020-03-06
!!!ENC: Marta Lawrence
!!!END: 2020-04-04
